packages/form-js-viewer/src/render/components/icons/DynamicList.svg

<svg width="54" height="54" viewBox="0 0 54 54" fill="none" xmlns="http://www.w3.org/2000/svg">
<path fill-rule="evenodd" clip-rule="evenodd" d="M2.70001 43.2964V44.55C2.70001 45.2956 3.30443 45.9 4.05001 45.9H5.32501V44.1052C5.3736 44.2444 5.40001 44.3941 5.40001 44.55V43.2964H5.32501V43.2H4.05001C4.22743 43.2 4.39685 43.2342 4.55204 43.2964H2.70001ZM5.40001 40.7893V38.2821H2.70001V40.7893H5.40001ZM5.40001 35.775V33.2679H2.70001V35.775H5.40001ZM5.40001 30.7607V28.2536H2.70001V30.7607H5.40001ZM5.40001 25.7464V23.2393H2.70001V25.7464H5.40001ZM5.40001 20.7321V18.225H2.70001V20.7321H5.40001ZM5.40001 15.7179V13.2107H2.70001V15.7179H5.40001ZM2.70001 10.7036H4.55204C4.39685 10.7658 4.22743 10.8 4.05001 10.8H5.32501V10.7036H5.40001V9.45C5.40001 9.60585 5.3736 9.75554 5.32501 9.89482V8.1H4.05001C3.30443 8.1 2.70001 8.70441 2.70001 9.45V10.7036ZM7.87501 10.8H10.425V8.1H7.87501V10.8ZM12.975 10.8H15.525V8.1H12.975V10.8ZM18.075 10.8H20.625V8.1H18.075V10.8ZM23.175 10.8H25.725V8.1H23.175V10.8ZM28.275 10.8H30.825V8.1H28.275V10.8ZM33.375 10.8H35.925V8.1H33.375V10.8ZM38.475 10.8H41.025V8.1H38.475V10.8ZM43.575 10.8H46.125V8.1H43.575V10.8ZM48.675 8.1V9.89484C48.6264 9.75555 48.6 9.60586 48.6 9.45V10.7036H48.675V10.8H49.95C49.7726 10.8 49.6032 10.7658 49.448 10.7036H51.3V9.45C51.3 8.70441 50.6956 8.1 49.95 8.1H48.675ZM48.6 13.2107V15.7179H51.3V13.2107H48.6ZM48.6 18.225V20.7321H51.3V18.225H48.6ZM48.6 23.2393V25.7464H51.3V23.2393H48.6ZM48.6 28.2536V30.7607H51.3V28.2536H48.6ZM48.6 33.2679V35.775H51.3V33.2679H48.6ZM48.6 38.2821V40.7893H51.3V38.2821H48.6ZM51.3 43.2964H49.448C49.6032 43.2342 49.7726 43.2 49.95 43.2H48.675V43.2964H48.6V44.55C48.6 44.3941 48.6264 44.2445 48.675 44.1052V45.9H49.95C50.6956 45.9 51.3 45.2956 51.3 44.55V43.2964ZM46.125 43.2H43.575V45.9H46.125V43.2ZM41.025 43.2H38.475V45.9H41.025V43.2ZM35.925 43.2H33.375V45.9H35.925V43.2ZM30.825 43.2H28.275V45.9H30.825V43.2ZM25.725 43.2H23.175V45.9H25.725V43.2ZM20.625 43.2H18.075V45.9H20.625V43.2ZM15.525 43.2H12.975V45.9H15.525V43.2ZM10.425 43.2H7.87501V45.9H10.425V43.2ZM16.2 17.55C18.4368 17.55 20.25 19.3632 20.25 21.6V22.95C20.25 25.1868 18.4368 27 16.2 27H14.85C12.6133 27 10.8 25.1868 10.8 22.95V21.6C10.8 19.3632 12.6133 17.55 14.85 17.55H16.2ZM16.2 20.25H14.85C14.1044 20.25 13.5 20.8544 13.5 21.6V22.95C13.5 23.6956 14.1044 24.3 14.85 24.3H16.2C16.9456 24.3 17.55 23.6956 17.55 22.95V21.6C17.55 20.8544 16.9456 20.25 16.2 20.25ZM43.2 21.6C43.2 19.3632 41.3868 17.55 39.15 17.55H29.7C27.4633 17.55 25.65 19.3632 25.65 21.6V22.95C25.65 25.1868 27.4633 27 29.7 27H39.15C41.3868 27 43.2 25.1868 43.2 22.95V21.6ZM29.7 20.25H39.15C39.8956 20.25 40.5 20.8544 40.5 21.6V22.95C40.5 23.6956 39.8956 24.3 39.15 24.3H29.7C28.9544 24.3 28.35 23.6956 28.35 22.95V21.6C28.35 20.8544 28.9544 20.25 29.7 20.25ZM43.2 37.8C43.2 35.5632 41.3868 33.75 39.15 33.75H29.7C27.4633 33.75 25.65 35.5632 25.65 37.8V39.15H28.35V37.8C28.35 37.0544 28.9544 36.45 29.7 36.45H39.15C39.8956 36.45 40.5 37.0544 40.5 37.8V39.15H43.2V37.8ZM16.2 33.75C18.4368 33.75 20.25 35.5632 20.25 37.8V39.15H17.55V37.8C17.55 37.0544 16.9456 36.45 16.2 36.45H14.85C14.1044 36.45 13.5 37.0544 13.5 37.8V39.15H10.8V37.8C10.8 35.5632 12.6133 33.75 14.85 33.75H16.2Z" fill="currentColor"/>
</svg>

<svg xmlns="http://www.w3.org/2000/svg" width="54" height="54" fill="none"><path fill="currentColor" fill-rule="evenodd" d="M2.7 43.296v1.254c0 .746.604 1.35 1.35 1.35h1.275v-1.795c.049.14.075.29.075.445v-1.254h-.075V43.2H4.05c.177 0 .347.034.502.096H2.7Zm2.7-2.507v-2.507H2.7v2.507h2.7Zm0-5.014v-2.507H2.7v2.507h2.7Zm0-5.014v-2.507H2.7v2.507h2.7Zm0-5.015V23.24H2.7v2.507h2.7Zm0-5.014v-2.507H2.7v2.507h2.7Zm0-5.014V13.21H2.7v2.507h2.7Zm-2.7-5.014h1.852a1.346 1.346 0 0 1-.502.096h1.275v-.096H5.4V9.45c0 .156-.026.306-.075.445V8.1H4.05A1.35 1.35 0 0 0 2.7 9.45v1.254Zm5.175.096h2.55V8.1h-2.55v2.7Zm5.1 0h2.55V8.1h-2.55v2.7Zm5.1 0h2.55V8.1h-2.55v2.7Zm5.1 0h2.55V8.1h-2.55v2.7Zm5.1 0h2.55V8.1h-2.55v2.7Zm5.1 0h2.55V8.1h-2.55v2.7Zm5.1 0h2.55V8.1h-2.55v2.7Zm5.1 0h2.55V8.1h-2.55v2.7Zm5.1-2.7v1.795a1.348 1.348 0 0 1-.075-.445v1.254h.075v.096h1.275c-.177 0-.347-.034-.502-.096H51.3V9.45a1.35 1.35 0 0 0-1.35-1.35h-1.275Zm-.075 5.11v2.508h2.7V13.21h-2.7Zm0 5.015v2.507h2.7v-2.507h-2.7Zm0 5.014v2.507h2.7V23.24h-2.7Zm0 5.015v2.507h2.7v-2.507h-2.7Zm0 5.014v2.507h2.7v-2.507h-2.7Zm0 5.014v2.507h2.7v-2.507h-2.7Zm2.7 5.014h-1.852c.155-.062.325-.096.502-.096h-1.275v.096H48.6v1.254c0-.156.026-.305.075-.445V45.9h1.275a1.35 1.35 0 0 0 1.35-1.35v-1.254Zm-5.175-.096h-2.55v2.7h2.55v-2.7Zm-5.1 0h-2.55v2.7h2.55v-2.7Zm-5.1 0h-2.55v2.7h2.55v-2.7Zm-5.1 0h-2.55v2.7h2.55v-2.7Zm-5.1 0h-2.55v2.7h2.55v-2.7Zm-5.1 0h-2.55v2.7h2.55v-2.7Zm-5.1 0h-2.55v2.7h2.55v-2.7Zm-5.1 0h-2.55v2.7h2.55v-2.7ZM16.2 17.55a4.05 4.05 0 0 1 4.05 4.05v1.35A4.05 4.05 0 0 1 16.2 27h-1.35a4.05 4.05 0 0 1-4.05-4.05V21.6a4.05 4.05 0 0 1 4.05-4.05h1.35Zm0 2.7h-1.35a1.35 1.35 0 0 0-1.35 1.35v1.35c0 .746.604 1.35 1.35 1.35h1.35a1.35 1.35 0 0 0 1.35-1.35V21.6a1.35 1.35 0 0 0-1.35-1.35Zm27 1.35a4.05 4.05 0 0 0-4.05-4.05H29.7a4.05 4.05 0 0 0-4.05 4.05v1.35A4.05 4.05 0 0 0 29.7 27h9.45a4.05 4.05 0 0 0 4.05-4.05V21.6Zm-13.5-1.35h9.45c.746 0 1.35.604 1.35 1.35v1.35a1.35 1.35 0 0 1-1.35 1.35H29.7a1.35 1.35 0 0 1-1.35-1.35V21.6c0-.746.604-1.35 1.35-1.35ZM43.2 37.8a4.05 4.05 0 0 0-4.05-4.05H29.7a4.05 4.05 0 0 0-4.05 4.05v1.35h2.7V37.8c0-.746.604-1.35 1.35-1.35h9.45c.746 0 1.35.604 1.35 1.35v1.35h2.7V37.8Zm-27-4.05a4.05 4.05 0 0 1 4.05 4.05v1.35h-2.7V37.8a1.35 1.35 0 0 0-1.35-1.35h-1.35a1.35 1.35 0 0 0-1.35 1.35v1.35h-2.7V37.8a4.05 4.05 0 0 1 4.05-4.05h1.35Z" clip-rule="evenodd"/></svg>
